www/assets/icons/headphones_battery.svg

<svg xmlns="http://www.w3.org/2000/svg" width="24" height="24" viewBox="0 0 24 24" fill='currentColor'><path d="M21 7h-1V6h-2v1h-1c-.55 0-1 .45-1 1v9c0 .55.45 1 1 1h4c.55 0 1-.45 1-1V8c0-.55-.45-1-1-1M8 6c-3.31 0-6 2.69-6 6v4c0 1.1.9 2 2 2h2v-5H3.5v-1c0-2.48 2.02-4.5 4.5-4.5s4.5 2.02 4.5 4.5v1H10v5h2c1.1 0 2-.9 2-2v-4c0-3.31-2.69-6-6-6"/></svg>

<svg width="24" height="24" viewBox="0 0 24 24" xmlns="http://www.w3.org/2000/svg" fill='currentColor'><path d="M21 7H20V6H18V7H17C16.45 7 16 7.45 16 8V17C16 17.55 16.45 18 17 18H21C21.55 18 22 17.55 22 17V8C22 7.45 21.55 7 21 7Z"/><path d="M8 6C4.69 6 2 8.69 2 12V16C2 17.1 2.9 18 4 18H6V13H3.5V12C3.5 9.52 5.52 7.5 8 7.5C10.48 7.5 12.5 9.52 12.5 12V13H10V18H12C13.1 18 14 17.1 14 16V12C14 8.69 11.31 6 8 6Z"/></svg>
